dist/2.0.0/img/icon-instgram-inverse.svg

<?xml version="1.0" encoding="UTF-8" standalone="no"?>
<svg width="23px" height="22px" viewBox="0 0 23 22" version="1.1" xmlns="http://www.w3.org/2000/svg" xmlns:xlink="http://www.w3.org/1999/xlink" xmlns:sketch="http://www.bohemiancoding.com/sketch/ns">
    <!-- Generator: Sketch 3.3 (11970) - http://www.bohemiancoding.com/sketch -->
    <title>icon-instgram-inverse</title>
    <desc>Created with Sketch.</desc>
    <defs></defs>
    <g id="Desktop" stroke="none" stroke-width="1" fill="none" fill-rule="evenodd" sketch:type="MSPage">
        <g id="Desktop-HD" sketch:type="MSArtboardGroup" transform="translate(-456.000000, -420.000000)" fill="#FFFFFF">
            <g id="icon-instgram-inverse" sketch:type="MSLayerGroup" transform="translate(456.000000, 420.000000)">
                <path d="M1.64989474,20.5965789 C2.19589474,21.1182632 2.84136842,21.3912632 3.58521053,21.3912632 L19.3882632,21.3912632 C20.1321053,21.3912632 20.7775789,21.1182632 21.3235789,20.5965789 C21.8441579,20.0516842 22.1171579,19.4062105 22.1171579,18.6623684 L22.1171579,2.85931579 C22.1171579,2.11436842 21.8441579,1.47 21.3235789,0.924 C20.7775789,0.403421053 20.1321053,0.130421053 19.3882632,0.130421053 L3.58521053,0.130421053 C2.84136842,0.130421053 2.19589474,0.403421053 1.64989474,0.924 C1.12931579,1.47 0.856315789,2.11436842 0.856315789,2.85931579 L0.856315789,18.6623684 C0.856315789,19.4062105 1.12931579,20.0516842 1.64989474,20.5965789 L1.64989474,20.5965789 Z M3.21273684,9.135 L5.17236842,9.135 C4.99884211,9.70642105 4.90047368,10.3264737 4.90047368,10.9465263 C4.90047368,12.7083158 5.54484211,14.2214211 6.83468421,15.4869474 C8.12563158,16.7270526 9.68847368,17.3471053 11.4988947,17.3471053 C12.7146842,17.3471053 13.8066842,17.0497895 14.8235263,16.4783684 C15.8403684,15.9080526 16.6339474,15.1387895 17.2296842,14.1716842 C17.8254211,13.1791579 18.1227368,12.1125789 18.1227368,10.9465263 C18.1227368,10.3264737 18.0232632,9.70642105 17.8497368,9.135 L19.711,9.135 L19.711,18.0909474 C19.711,18.3396316 19.6358421,18.5374737 19.4623158,18.6866842 C19.2887895,18.8602105 19.0909474,18.9342632 18.8676842,18.9342632 L4.05605263,18.9342632 C3.80847368,18.9342632 3.60952632,18.8602105 3.46142105,18.6866842 C3.28789474,18.5374737 3.21273684,18.3396316 3.21273684,18.0909474 L3.21273684,9.135 L3.21273684,9.135 Z M11.4988947,6.58073684 C12.6903684,6.58073684 13.7072105,6.97752632 14.5262105,7.79542105 C15.3695263,8.61442105 15.7906316,9.58152632 15.7906316,10.7232632 C15.7906316,11.8638947 15.3695263,12.8564211 14.5262105,13.6511053 C13.7072105,14.469 12.6903684,14.8657895 11.4988947,14.8657895 C10.3328421,14.8657895 9.316,14.469 8.497,13.6511053 C7.65368421,12.8564211 7.23147368,11.8638947 7.23147368,10.7232632 C7.23147368,9.58152632 7.65368421,8.61442105 8.497,7.79542105 C9.316,6.97752632 10.3328421,6.58073684 11.4988947,6.58073684 L11.4988947,6.58073684 Z M15.3938421,3.45394737 C15.3938421,3.18094737 15.4933158,2.95878947 15.6668421,2.75984211 C15.8657895,2.58631579 16.0890526,2.48684211 16.3609474,2.48684211 L18.7682105,2.48684211 C19.0157895,2.48684211 19.2390526,2.58631579 19.438,2.75984211 C19.6115263,2.95878947 19.711,3.18094737 19.711,3.45394737 L19.711,5.73631579 C19.711,6.00931579 19.6115263,6.23257895 19.438,6.43152632 C19.2390526,6.60505263 19.0157895,6.70452632 18.7682105,6.70452632 L16.3609474,6.70452632 C16.0890526,6.70452632 15.8657895,6.60505263 15.6668421,6.43152632 C15.4933158,6.23257895 15.3938421,6.00931579 15.3938421,5.73631579 L15.3938421,3.45394737 L15.3938421,3.45394737 Z" id="Fill-46" sketch:type="MSShapeGroup"></path>
            </g>
        </g>
    </g>
</svg>

<svg width="23" height="22" viewBox="0 0 23 22" xmlns="http://www.w3.org/2000/svg"><title>icon-instgram-inverse</title><path d="M1.65 20.597c.546.52 1.19.794 1.935.794h15.803c.744 0 1.39-.272 1.936-.793.52-.545.793-1.19.793-1.935V2.86c0-.746-.273-1.39-.793-1.936-.546-.52-1.192-.794-1.936-.794H3.585c-.744 0-1.39.273-1.935.794-.52.546-.794 1.19-.794 1.935V18.66c0 .744.273 1.39.794 1.935zM3.213 9.135h1.96c-.174.57-.273 1.19-.273 1.812 0 1.76.645 3.274 1.935 4.54 1.29 1.24 2.853 1.86 4.664 1.86 1.215 0 2.307-.297 3.324-.87 1.016-.57 1.81-1.338 2.406-2.305.595-.993.893-2.06.893-3.225 0-.62-.1-1.24-.273-1.812h1.86v8.956c0 .25-.074.447-.248.597-.173.173-.37.247-.594.247H4.056c-.248 0-.446-.074-.595-.247-.172-.15-.247-.347-.247-.596V9.136zM11.5 6.58c1.19 0 2.207.398 3.026 1.215.844.82 1.265 1.787 1.265 2.928 0 1.14-.42 2.133-1.264 2.928-.82.82-1.836 1.216-3.027 1.216-1.167 0-2.184-.397-3.003-1.215-.843-.794-1.266-1.786-1.266-2.927 0-1.14.424-2.11 1.267-2.928.82-.817 1.836-1.214 3.002-1.214zm3.894-3.126c0-.273.1-.495.273-.694.2-.174.422-.273.694-.273h2.408c.248 0 .47.1.67.273.174.2.273.42.273.694v2.282c0 .273-.098.497-.272.696-.2.173-.422.273-.67.273H16.36c-.27 0-.494-.1-.693-.273-.174-.2-.273-.423-.273-.696V3.454z" fill="#FFF" fill-rule="evenodd"/></svg>
